docs/app/assets/images/logo-sass.svg

<svg fill="none" height="64" viewBox="0 0 64 64" width="64" xmlns="http://www.w3.org/2000/svg" xmlns:xlink="http://www.w3.org/1999/xlink"><clipPath id="a"><path d="m0 0h64v64h-64z"/></clipPath><g clip-path="url(#a)"><path clip-rule="evenodd" d="m14.2218 5.39299c5.2623-3.5162 11.4492-5.3929719 17.7782-5.3929719 4.2036-.00447341 8.3667.8201779 12.2512 2.4267419 3.8844 1.60657 7.4138 3.9635 10.3862 6.93587s5.3293 6.50177 6.9359 10.38627c1.6065 3.8844 2.4312 8.0476 2.4267 12.2511 0 6.329-1.8768 12.5159-5.393 17.7783-3.5162 5.2623-8.5139 9.3639-14.3611 11.7859-5.8473 2.422-12.2814 3.0557-18.4888 1.8209-6.2074-1.2347-11.9092-4.2824-16.3845-8.7577-4.47528-4.4752-7.52299-10.1771-8.757715-16.3845-1.234727-6.2074-.60102-12.6415 1.820985-18.4888 2.422-5.8472 6.52352-10.8449 11.78593-14.36111zm16.1782 24.20701c1.9.6 6.5.9 12-1.2 6.2-2.4 11.1-9.1 9.8-14.6-1.5-5.69998-10.9-7.59998-19.8-4.39998-5.3 1.89998-11.1 4.79998-15.2 8.69998-4.9 4.6-5.7 8.6-5.4 10.3.816 4.3766 5.4839 7.5977 9.187 10.153 1.2889.8895 2.461 1.6982 3.313 2.447-1 .5-8.1 4.1-9.8 7.8-1.8 3.9.2 6.7 1.6 7.1 2.0342.5052 4.1762.3514 6.1173-.4394 1.941-.7908 3.5808-2.1777 4.6827-3.9606.9508-1.4277 1.5467-3.062 1.7381-4.7666.1913-1.7047-.0275-3.4304-.6381-5.0334 1.5975-.4225 3.2629-.5245 4.9-.3 5.6.6 6.7 4.1 6.5 5.6-.0853.5279-.2923 1.0286-.6048 1.4626-.3124.4339-.7216.7891-1.1952 1.0374-.4.2-.5.3-.5.5.1.3.3.3.6.2.8512-.2591 1.6035-.7709 2.1572-1.4674.5536-.6965.8824-1.5449.9428-2.4326.1-3.5-3.2-7.3-9-7.2-1.6919-.0126-3.3766.2232-5 .7 0-.1-.1-.2-.2-.3-1.1034-1.1646-2.4979-2.226-3.8929-3.2876-3.1565-2.4023-6.3151-4.8061-6.1071-8.4124.1-1.8.7-6.8 12.8-12.8 9.8-5 17.7-3.6 19.1-.6 1.9 4.3-4.2 12.3-14.5 13.4-3.9.5-6-1-6.5-1.6s-.6-.6-.8-.5c-.2778.1852-.1268.6277-.0236.9304.0083.0241.0162.0474.0236.0696.8006 1.4185 2.1313 2.4615 3.7 2.9zm-12.2999 23.1c-1.2-.7-.6-3.5 1.6-5.8 1.6574-1.6757 3.5841-3.0616 5.7-4.1.05-.05.1-.075.15-.1s.1-.05.15-.1c.4196 1.5774.3849 3.2414-.1 4.8-.05.1-.075.175-.1.25s-.05.15-.1.25-.075.175-.1.25-.05.15-.1.25c-.4066.7929-.9105 1.5319-1.5 2.2-1.9 2-4.5 2.7-5.6 2.1z" fill="#cd679a" fill-rule="evenodd"/></g></svg>

<svg width="64" height="64" viewBox="0 0 64 64" fill="none" xmlns="http://www.w3.org/2000/svg">
<g clip-path="url(#clip0)">
<path fill-rule="evenodd" clip-rule="evenodd" d="M14.2218 5.39299C19.4841 1.87679 25.671 1.81026e-05 32 1.81026e-05C36.2036 -0.00445531 40.3667 0.820196 44.2512 2.42676C48.1356 4.03333 51.665 6.39026 54.6374 9.36263C57.6098 12.335 59.9667 15.8644 61.5733 19.7489C63.1798 23.6333 64.0045 27.7965 64 32C64 38.329 62.1232 44.5159 58.607 49.7783C55.0908 55.0406 50.0931 59.1422 44.2459 61.5642C38.3986 63.9862 31.9645 64.6199 25.7571 63.3851C19.5497 62.1504 13.8479 59.1027 9.3726 54.6274C4.89732 50.1522 1.84961 44.4503 0.614885 38.2429C-0.619842 32.0355 0.013865 25.6014 2.43587 19.7541C4.85787 13.9069 8.95939 8.9092 14.2218 5.39299ZM30.4 29.6C32.3 30.2 36.9 30.5 42.4 28.4C48.6 26 53.5 19.3 52.2 13.8C50.7 8.10002 41.3 6.20002 32.4 9.40002C27.1 11.3 21.3 14.2 17.2 18.1C12.3 22.7 11.5 26.7 11.8 28.4C12.616 32.7766 17.2839 35.9977 20.987 38.553C22.2759 39.4425 23.448 40.2512 24.3 41C23.3 41.5 16.2 45.1 14.5 48.8C12.7 52.7 14.7 55.5 16.1 55.9C18.1342 56.4052 20.2762 56.2514 22.2173 55.4606C24.1583 54.6698 25.7981 53.2829 26.9 51.5C27.8508 50.0723 28.4467 48.438 28.6381 46.7334C28.8294 45.0287 28.6106 43.303 28 41.7C29.5975 41.2775 31.2629 41.1755 32.9 41.4C38.5 42 39.6 45.5 39.4 47C39.3147 47.5279 39.1077 48.0286 38.7952 48.4626C38.4828 48.8965 38.0736 49.2517 37.6 49.5C37.2 49.7 37.1 49.8 37.1 50C37.2 50.3 37.4 50.3 37.7 50.2C38.5512 49.9409 39.3035 49.4291 39.8572 48.7326C40.4108 48.0361 40.7396 47.1877 40.8 46.3C40.9 42.8 37.6 39 31.8 39.1C30.1081 39.0874 28.4234 39.3232 26.8 39.8C26.8 39.7 26.7 39.6 26.6 39.5C25.4966 38.3354 24.1021 37.274 22.7071 36.2124C19.5506 33.8101 16.392 31.4063 16.6 27.8C16.7 26 17.3 21 29.4 15C39.2 10 47.1 11.4 48.5 14.4C50.4 18.7 44.3 26.7 34 27.8C30.1 28.3 28 26.8 27.5 26.2C27 25.6 26.9 25.6 26.7 25.7C26.4222 25.8852 26.5732 26.3277 26.6764 26.6304C26.6847 26.6545 26.6926 26.6778 26.7 26.7C27.5006 28.1185 28.8313 29.1615 30.4 29.6ZM18.1001 52.7C16.9001 52 17.5001 49.2 19.7001 46.9C21.3575 45.2243 23.2842 43.8384 25.4001 42.8C25.4501 42.75 25.5001 42.725 25.5501 42.7C25.6001 42.675 25.6501 42.65 25.7001 42.6C26.1197 44.1774 26.085 45.8414 25.6001 47.4C25.5501 47.5 25.5251 47.575 25.5001 47.65C25.4751 47.725 25.4501 47.8 25.4001 47.9C25.3501 48 25.3251 48.075 25.3001 48.15C25.2751 48.225 25.2501 48.3 25.2001 48.4C24.7935 49.1929 24.2896 49.9319 23.7001 50.6C21.8001 52.6 19.2001 53.3 18.1001 52.7Z" fill="#CD679A"/>
</g>
<defs>
<clipPath id="clip0">
<rect width="64" height="64" fill="white"/>
</clipPath>
</defs>
</svg>
